icons/star-stroke-11.svg

<?xml version="1.0" encoding="utf-8"?>
<!-- Generator: Adobe Illustrator 19.2.1, SVG Export Plug-In . SVG Version: 6.00 Build 0)  -->
<!DOCTYPE svg PUBLIC "-//W3C//DTD SVG 1.1//EN" "http://www.w3.org/Graphics/SVG/1.1/DTD/svg11.dtd">
<svg version="1.1" id="Layer_1" xmlns="http://www.w3.org/2000/svg" xmlns:xlink="http://www.w3.org/1999/xlink" x="0px" y="0px"
	 width="11px" height="11px" viewBox="0 0 11 11" style="enable-background:new 0 0 11 11;" xml:space="preserve">
<path id="path4749-2-8-2" d="M5.5,2.69l0.59,1.47l0.25,0.63h1.81l-1,0.9l-0.5,0.44l0.18,0.63l0.56,1.69L6.07,7.53L5.5,7.12
	l-0.57,0.4L3.62,8.44l0.55-1.68l0.21-0.63L3.88,5.7l-1-0.9h1.78l0.25-0.63L5.5,2.69 M5.5,0L4,3.79H0.19l3,2.66L1.71,11L5.5,8.34
	L9.29,11L7.78,6.45l3-2.66H7L5.5,0L5.5,0z"/>
</svg>

<svg id="Layer_1" data-name="Layer 1" xmlns="http://www.w3.org/2000/svg" width="11" height="11" viewBox="0 0 11 11">
  <title>star-stroke-11</title>
  <path id="path4749-2-8-2" d="M5.5,2.69L6.09,4.16,6.34,4.79H8.15l-1,.9-0.5.44L6.83,6.76,7.39,8.45,6.07,7.53,5.5,7.12l-0.57.4-1.31.92L4.17,6.76l0.21-.63L3.88,5.7l-1-.9H4.66l0.25-.63L5.5,2.69M5.5,0L4,3.79H0.19l3,2.66L1.71,11,5.5,8.34,9.29,11,7.78,6.45l3-2.66H7L5.5,0h0Z"/>
</svg>
